X:2
T:Munawanqui
R:waynu
O:Peru
Z:id:hn-waynu-2
M:2/4
L:1/8
Q:1/4=90
K:Edor
"Intro" "Em"EG/Bee/ | "G"BA/"B"BA/G/F/ | "Em"E3/"B"BA/G/F/ |
"Em"EG/"B"BA/G/F/ | "Em"EE/GE/B, | "Em"EE/GE/B, | "Em"E4 ||
|: !S!"Em"G/BA/ GG |[M:3/4] "C"eg e3/gf/e |[M:2/4] "D"d/dd/ eA | "G"B4 :|
|: "G"d/dB/ "D"dd |[M:3/4] de "G"G3/"D"dB/A |[M:2/4] "G"G/GG/ "B"AF | "Em"E4 :|
|: "Em"G/BA/ GG |[M:3/4] "C"eg e3/gf/e |[M:2/4] "D"d/dd/ eA | "G"B4 :|
|: "G"d/dB/ "D"dd |[M:3/4] de "G"G3/"D"dB/A |[M:2/4] "G"G/GG/ "B"AF | "Em"E4 :|
"C"e/f/g/f/ e/d/e/d/ | "G"B/BA/ BB | "C"zd/e/ ge | "G"B4 |
"C"e/f/g/f/ e/d/e/d/ | "G"B3/Bd/c/d/ | "Em"ed/"B"BA/G | "Em"E3 B ||
"D"d/dd/ A/Ae/ | "G"B/BA/ BB | "D"z/dd/ A/Ae/ | "G"B4 |
"C"e/f/g/f/ e/d/e/d/ | "G"B3/Bd/c/d/ | "Em"ed/"B"BA/G | "Em"E4 ||
"Outro" "Em"EG/Bee/ | "G"BA/"B"BA/G/F/ | "Em"E4 ||

